svgs/sharp-solid/elevator.svg

<svg xmlns="http://www.w3.org/2000/svg" viewBox="0 0 512 512"><!--! Font Awesome Pro 6.6.0 by @fontawesome - https://fontawesome.com License - https://fontawesome.com/license (Commercial License) Copyright 2024 Fonticons, Inc. --><path d="M64 80l0 16 160 0 0-16L144 0 64 80zm448 48L0 128 0 512l512 0 0-384zM160 224a48 48 0 1 1 0 96 48 48 0 1 1 0-96zM80 448l24-96 112 0 24 96L80 448zm328-96l24 96-160 0 24-96 112 0zM304 272a48 48 0 1 1 96 0 48 48 0 1 1 -96 0zM368 96l80-80 0-16L288 0l0 16 80 80z"/></svg>

<svg xmlns="http://www.w3.org/2000/svg" viewBox="0 0 512 512"><!--! Font Awesome Pro 6.4.2 by @fontawesome - https://fontawesome.com License - https://fontawesome.com/license (Commercial License) Copyright 2023 Fonticons, Inc. --><path d="M64 80V96H224V80L144 0 64 80zm448 48H0V512H512V128zM160 224a48 48 0 1 1 0 96 48 48 0 1 1 0-96zM80 448l24-96H216l24 96H80zm328-96l24 96H272l24-96H408zM304 272a48 48 0 1 1 96 0 48 48 0 1 1 -96 0zM368 96l80-80V0H288V16l80 80z"/></svg>
